Newaita/actions/22/dashboard-show.svg

<svg height="22" viewBox="0 0 22 22" width="22" xmlns="http://www.w3.org/2000/svg"><g fill="#424242"><path d="m4.09375 18.363281h13.644531c.25 0 .453125.203125.453125.457031v.90625c0 .253907-.203125.457032-.453125.457032h-13.644531c-.25 0-.457031-.203125-.457031-.457032v-.90625c0-.253906.207031-.457031.457031-.457031zm0 0"/><path d="m3.636719 1.992188c-1.007813 0-1.816407.808593-1.816407 1.816406v10.917968c0 1.007813.808594 1.816407 1.816407 1.816407h14.554687c1.007813 0 1.820313-.808594 1.820313-1.816407v-10.917968c0-1.007813-.8125-1.816406-1.820313-1.816406zm.910156 1.816406h12.734375c.503906 0 .910156.40625.910156.910156v9.097656c0 .503906-.40625.910156-.910156.910156h-12.734375c-.503906 0-.910156-.40625-.910156-.910156v-9.097656c0-.503906.40625-.910156.910156-.910156zm0 0"/><path d="m8.1875 17h5.457031v.910156h-5.457031zm0 0"/></g></svg>

<?xml version="1.0" encoding="UTF-8"?>
<svg xmlns="http://www.w3.org/2000/svg" xmlns:xlink="http://www.w3.org/1999/xlink" width="22px" height="22px" viewBox="0 0 22 22" version="1.1">
<g id="surface1">
<path style=" stroke:none;fill-rule:nonzero;fill:rgb(25.882354%,25.882354%,25.882354%);fill-opacity:1;" d="M 4.09375 18.363281 L 17.738281 18.363281 C 17.988281 18.363281 18.191406 18.566406 18.191406 18.820312 L 18.191406 19.726562 C 18.191406 19.980469 17.988281 20.183594 17.738281 20.183594 L 4.09375 20.183594 C 3.84375 20.183594 3.636719 19.980469 3.636719 19.726562 L 3.636719 18.820312 C 3.636719 18.566406 3.84375 18.363281 4.09375 18.363281 Z M 4.09375 18.363281 "/>
<path style=" stroke:none;fill-rule:nonzero;fill:rgb(25.882354%,25.882354%,25.882354%);fill-opacity:1;" d="M 3.636719 1.992188 C 2.628906 1.992188 1.820312 2.800781 1.820312 3.808594 L 1.820312 14.726562 C 1.820312 15.734375 2.628906 16.542969 3.636719 16.542969 L 18.191406 16.542969 C 19.199219 16.542969 20.011719 15.734375 20.011719 14.726562 L 20.011719 3.808594 C 20.011719 2.800781 19.199219 1.992188 18.191406 1.992188 Z M 4.546875 3.808594 L 17.28125 3.808594 C 17.785156 3.808594 18.191406 4.214844 18.191406 4.71875 L 18.191406 13.816406 C 18.191406 14.320312 17.785156 14.726562 17.28125 14.726562 L 4.546875 14.726562 C 4.042969 14.726562 3.636719 14.320312 3.636719 13.816406 L 3.636719 4.71875 C 3.636719 4.214844 4.042969 3.808594 4.546875 3.808594 Z M 4.546875 3.808594 "/>
<path style=" stroke:none;fill-rule:nonzero;fill:rgb(25.882354%,25.882354%,25.882354%);fill-opacity:1;" d="M 8.1875 17 L 13.644531 17 L 13.644531 17.910156 L 8.1875 17.910156 Z M 8.1875 17 "/>
</g>
</svg>
